X:9271
T:LARIDE 1
Z: Yves BELOTTEAU
M:6/8
L:1/8
Q:1/4=88
K:C 
|A/2Ac/2e d/2c/2B/2A/2B3/2|A/2A/2A/2GE/2 GB/2A3/2|Ac/2ed/2 c/2B/2A/2B3/2
|A/2A/2A/2GE/2 GB/2A3/2|
e/2d/2c/2Bc/2 AG/2A3/2|A/2A/2A/2GE/2 GB/2A3/2|e/2d/2c/2Bc/2 AG/2A3/2|A/2
A/2A/2GE/2 GB/2A3/2|
